icons/external-link-o.svg

<svg width="24" height="24" viewBox="0 0 24 24" xmlns="http://www.w3.org/2000/svg">
    <path
        d="M6 5C5.44772 5 5 5.44772 5 6V18C5 18.5523 5.44772 19 6 19H18C18.5523 19 19 18.5523 19 18V14.88H21V18C21 19.6568 19.6569 21 18 21H6C4.34315 21 3 19.6569 3 18V6C3 4.34315 4.34315 3 6 3H9.44V5H6ZM19 6.41424L12.7071 12.7071L11.2929 11.2929L17.5858 5L14 5V3L19 3C20.1046 3 21 3.89543 21 5L21 10H19L19 6.41424Z" />
</svg>

<svg xmlns="http://www.w3.org/2000/svg" width="24" height="24" viewBox="0 0 24 24">
    <path stroke="#222" stroke-linejoin="round" stroke-width="2"
        d="M12 12l8-8M20 14.88V18c0 1.105-.895 2-2 2H6c-1.105 0-2-.895-2-2V6c0-1.105.895-2 2-2h3.44M20 10V5c0-.552-.448-1-1-1h-5" />
    <path fill="#222" fill-rule="evenodd"
        d="M6 5c-.552 0-1 .448-1 1v12c0 .552.448 1 1 1h12c.552 0 1-.448 1-1v-3.12h2V18c0 1.657-1.343 3-3 3H6c-1.657 0-3-1.343-3-3V6c0-1.657 1.343-3 3-3h3.44v2H6zm13 1.414l-6.293 6.293-1.414-1.414L17.586 5H14V3h5c1.105 0 2 .895 2 2v5h-2V6.414z"
        clip-rule="evenodd" />
</svg>
